X:66
T:Southwind (Guitar accomp.)
M:3/4
L:1/8
C:Arr. F. Wilson
K:G
"G"G,D GB GD|[G,B]G [A,c]G [B,d]G|"D"F,D AG AB|[Ac]D [Bd]D [Ac]D|
"G"G,D [Gc]D [GB]D|"C"CE [Gd]E [Gc]E|"G"G,D [cg]A [GB]c|"G"G,D [G4B4]||
"G"G,D [Gc]D [GB]D|[G,B]G [A,c]G [B,d]G|"1/2 II D"DA [df]A [d2g2]|DA [d4
f4]|
"G"G,D [Gc]D [GB]D|"C"CG [de]G [ce]G|"G"G,D [cg]A [GB]c|G,D [GB]D G,F,||
"Em"E,G Be B,G|"C"CG de ce|"G"G,G [cg]G [Bg]G|DG [B4g4]|
G,D GB GD|[G,B]G [A,c]G [B,d]G|"D"F,D AG AB|[Ac]D [Bd]D [A2c2]||
"Em"E,G Be B,G|"C"CG de ce|"G"G,D [cg]A "port. A-B to III G"[GB][Ac]|G,B
[d4g4]|
"G"G,D [G4B4]|"1/2 II D"DA [dg]A [df]A|"G"G,D [cg]A [GB][Ac]|"III"[G,6B6
d6g6]||
